!!!OTL: Na swieta Szkolastyke
**kern
*staff1
=--
*clefC1
*k[]
00r
=-
*k[b-]
1b-
2cc
2cc
1dd
=-
1.cc
2b-
1a
1g
=-
1b-
2cc
2cc
1dd
1cc
=-
1.dd
2b-
1cc
1dd
=-
1.dd
2cc
2b-
2cc
1dd
!!linebreak:original
=-
1cc
1b-
2cc
2a
1b-
=-
!LO:TX:Y=-31:t=P
!LO:TX:Y=-31:t=P
1cc
1b-
2a
2a
2b-
2b-
=-
!LO:TX:Y=-32:t=P
1cc
1dd
1.dd
2dd
=-
2cc
2b-
1g
1a
1g
=-
!LO:TX:Y=-32:t=P
1b-
1.cc
2cc
1dd
=-
0ee-
0dd
=-
!!linebreak:original
00r
=-
1cc
2dd
2cc
2b-
2a
2g
2a
=-
1a
2b-
2cc
2dd
2cc
1b-
=-
!LO:TX:Y=-37:t=P
1cc
1dd
1b-
0cc
0a
=-=
*-
!!title: @{OTL}, @{GTL}, ed. @{ENC}
!!!pag:
!!!GTL: Hymnbook C
!!!EFL: 
!!!YEM: Creative Commons CC/BY/NC/SA 4.0
!!!ENC: Marcin Konik
!!!END: 2015-0m-dd
!!!EED: Marcin Konik
!!!EEV: 
!!!ONB: Encoded in vim by Marcin Konik
!!!CharacterEncoding: utf-8
!!!RDF**kern: l=long note in original notation
!!!RDF**kern: i=editorial accidental
!!muse2ps: z14jc180F
!!!COM: Anonim
!!!CDT: [?]
!!!TXO: Polish
!!!ODT: 
!!!GTL: Hymnbook C
!!!ARL: Opactwo św. Wojciecha, Staniątki 
!!!voices:	1
